lib/brands/icons/google-ads.svg

<svg xmlns="http://www.w3.org/2000/svg" fill="none" aria-hidden="true" viewBox="0 0 48 48"><g id="google_ads-Icon"><g id="google_ads"><path id="vector" fill="#F8BB2D" d="M27.3854 18.9171C28.4657 17.0306 27.8246 14.6183 25.9535 13.5291C24.0824 12.4399 21.6898 13.0863 20.6095 14.9728L12.5311 29.0806C11.4508 30.9671 12.0919 33.3794 13.963 34.4686C15.8341 35.5578 18.2267 34.9114 19.3069 33.0249L27.3854 18.9171Z"/><path id="vector_2" fill="#3BA757" d="M19.8263 31.0546C19.8263 33.2336 18.0743 35 15.9131 35C13.752 35 12 33.2336 12 31.0546C12 28.8756 13.752 27.1091 15.9131 27.1091C18.0743 27.1091 19.8263 28.8756 19.8263 31.0546Z"/><path id="vector_3" fill="#4689F2" d="M20.621 18.9171C19.5407 17.0306 20.1818 14.6183 22.0529 13.5291C23.924 12.4399 26.3165 13.0863 27.3968 14.9728L35.4752 29.0806C36.5555 30.9671 35.9144 33.3794 34.0433 34.4686C32.1722 35.5578 29.7797 34.9114 28.6994 33.0249L20.621 18.9171Z"/></g></g></svg>

<svg xmlns="http://www.w3.org/2000/svg" fill="none" aria-hidden="true" viewBox="0 0 48 48"><path fill="#F8BB2D" d="M27.385 18.917c1.08-1.886.44-4.299-1.432-5.388a3.895 3.895 0 0 0-5.344 1.444L12.531 29.08c-1.08 1.886-.44 4.298 1.432 5.388a3.895 3.895 0 0 0 5.344-1.444l8.078-14.108Z"/><path fill="#3BA757" d="M19.826 31.055c0 2.179-1.752 3.945-3.913 3.945C13.752 35 12 33.234 12 31.055c0-2.18 1.752-3.946 3.913-3.946 2.161 0 3.913 1.767 3.913 3.946Z"/><path fill="#4689F2" d="M20.621 18.917c-1.08-1.886-.44-4.299 1.432-5.388a3.895 3.895 0 0 1 5.344 1.444l8.078 14.108c1.08 1.886.44 4.298-1.432 5.388a3.895 3.895 0 0 1-5.344-1.444l-8.078-14.108Z"/></svg>
